src/assets/icons/book.svg

<?xml version="1.0" standalone="no"?><!DOCTYPE svg PUBLIC "-//W3C//DTD SVG 1.1//EN" "http://www.w3.org/Graphics/SVG/1.1/DTD/svg11.dtd"><svg t="1669107750346" class="icon" viewBox="0 0 1024 1024" version="1.1" xmlns="http://www.w3.org/2000/svg" p-id="10216" xmlns:xlink="http://www.w3.org/1999/xlink" width="200" height="200"><path d="M896 128l0 832-672 0c-53.024 0-96-42.976-96-96s42.976-96 96-96l608 0 0-768-640 0c-70.4 0-128 57.6-128 128l0 768c0 70.4 57.6 128 128 128l768 0 0-896-64 0z" p-id="10217" fill="#b37feb"></path><path d="M224.064 832l0 0c-0.032 0-0.032 0-0.064 0-17.664 0-32 14.336-32 32s14.336 32 32 32c0.032 0 0.032 0 0.064 0l0 0 607.904 0 0-64-607.904 0z" p-id="10218" fill="#b37feb"></path></svg>

<?xml version="1.0" standalone="no"?><!DOCTYPE svg PUBLIC "-//W3C//DTD SVG 1.1//EN" "http://www.w3.org/Graphics/SVG/1.1/DTD/svg11.dtd"><svg t="1669187566097" class="icon" viewBox="0 0 1024 1024" version="1.1" xmlns="http://www.w3.org/2000/svg" p-id="3306" xmlns:xlink="http://www.w3.org/1999/xlink" width="200" height="200"><path d="M896 128v832H224a96 96 0 1 1 0-192H832V0H192C121.6 0 64 57.6 64 128v768c0 70.4 57.6 128 128 128h768V128h-64z" fill="#69c0ff" p-id="3307"></path><path d="M224.064 832H224a32 32 0 0 0 0 64H831.936v-64H224.064z" fill="#69c0ff" p-id="3308"></path></svg>
